X: 2
T: Banish Misfortune
R: jig
M: 6/8
L: 1/8
K: Emix
gfe dBA| B2e dBA| G2E EFE| GFG AGA|
BAB dBA| BAB def|gfe dBA| Be^d e3:|
g2e e^de| g2a bag| f2d dcd|f2g agf|
g2a bag| f2g agf|gfe dBA|Be^d e3:|
g2a f2g| e2f d2e|BcB ABA| G2G AFE|
d3 dBA| BAB def| gfe dBA| Be^d e3:|


Tune 9	Setting 23916

